source/media/icon/ae.svg

<?xml version="1.0" encoding="UTF-8" standalone="no"?>
<svg
   data-name="Layer 1"
   id="Layer_1"
   viewBox="0 0 512 512"
   version="1.1"
   sodipodi:docname="ae.svg"
   inkscape:version="1.1.2 (0a00cf5, 2022-02-04)"
   xmlns:inkscape="http://www.inkscape.org/namespaces/inkscape"
   xmlns:sodipodi="http://sodipodi.sourceforge.net/DTD/sodipodi-0.dtd"
   xmlns="http://www.w3.org/2000/svg"
   xmlns:svg="http://www.w3.org/2000/svg">
  <sodipodi:namedview
     id="namedview1964"
     pagecolor="#ffffff"
     bordercolor="#999999"
     borderopacity="1"
     inkscape:pageshadow="0"
     inkscape:pageopacity="0"
     inkscape:pagecheckerboard="0"
     showgrid="false"
     inkscape:zoom="1.578125"
     inkscape:cx="256"
     inkscape:cy="256"
     inkscape:window-width="1920"
     inkscape:window-height="1016"
     inkscape:window-x="0"
     inkscape:window-y="28"
     inkscape:window-maximized="1"
     inkscape:current-layer="Layer_1" />
  <defs
     id="defs1953">
    <style
       id="style1951">.cls-1{fill:#1f0040;}.cls-2{fill:#f7eefe;}</style>
  </defs>
  <path
     id="rect1955"
     style="fill:#000000"
     class="cls-1"
     d="M 136.06055 46.419922 C 82.843305 46.419922 40 89.263229 40 142.48047 L 40 369.5293 C 40 422.74654 82.843305 465.58984 136.06055 465.58984 L 375.93945 465.58984 C 429.15669 465.58984 472 422.74654 472 369.5293 L 472 142.48047 C 472 89.263229 429.15669 46.419922 375.93945 46.419922 L 136.06055 46.419922 z M 168.51953 164.39062 L 209.16016 164.39062 C 210.44016 164.39062 210.94016 164.64016 211.16016 165.91016 L 268.82031 328.49023 C 269.33031 329.76023 269.07078 330.7793 267.55078 330.7793 L 234.55078 330.7793 A 2.57 2.57 0 0 1 231.75 329 L 218.75 291.15039 L 160.10938 291.17969 L 147.91016 328.7793 A 2.74 2.74 0 0 1 145.11914 330.7793 L 115.65039 330.7793 C 113.87039 330.7793 113.37039 329.78023 113.65039 328.24023 L 164.46094 181.66016 C 165.46094 178.87016 166.46 175.81992 167 166.16992 A 1.7 1.7 0 0 1 168.51953 164.39062 z M 189.07031 193.89062 C 185.00031 210.89062 175.86 238.88969 169.25 259.42969 L 209.39062 259.42969 C 204.31062 242.65969 194.15031 211.92064 189.32031 193.89062 L 189.07031 193.89062 z M 337.92969 202 C 376.27969 202 391.5293 231.71914 391.5293 256.86914 C 391.5293 264.73914 391.02 271.08914 390.25 273.86914 A 2.18 2.18 0 0 1 388.25 275.86914 C 384.95 276.37914 375.24984 276.86914 362.08984 276.86914 L 312.51953 277 C 313.78953 291.48 323.94961 303.41992 348.84961 303.41992 C 360.27961 303.41992 370.43984 301.65008 380.08984 297.58008 C 380.85984 297.07008 381.61914 297.32961 381.61914 298.84961 L 381.61914 322.98047 C 381.61914 324.76047 381.10984 325.5193 379.83984 326.0293 C 369.67984 330.8593 358.5007 333.40039 340.9707 333.40039 C 293.2207 333.40039 276.44922 300.63086 276.44922 269.13086 C 276.44922 234.00086 297.99969 202 337.92969 202 z M 336.63086 229.92969 C 320.63086 229.92969 313.76023 241.8693 312.24023 252.2793 L 345.51953 252.35938 C 353.63953 252.35938 357.2007 252.10938 358.2207 251.85938 L 358.2207 250 C 358.2207 243.9 353.39086 229.92969 336.63086 229.92969 z " />
</svg>

<?xml version="1.0" encoding="UTF-8" standalone="no"?>
<svg
   data-name="Layer 1"
   id="Layer_1"
   viewBox="0 0 512 512"
   version="1.1"
   sodipodi:docname="ae.svg"
   inkscape:version="1.1.2 (0a00cf5, 2022-02-04)"
   xmlns:inkscape="http://www.inkscape.org/namespaces/inkscape"
   xmlns:sodipodi="http://sodipodi.sourceforge.net/DTD/sodipodi-0.dtd"
   xmlns="http://www.w3.org/2000/svg"
   xmlns:svg="http://www.w3.org/2000/svg">
  <sodipodi:namedview
     id="namedview1964"
     pagecolor="#ffffff"
     bordercolor="#999999"
     borderopacity="1"
     inkscape:pageshadow="0"
     inkscape:pageopacity="0"
     inkscape:pagecheckerboard="0"
     showgrid="false"
     inkscape:zoom="1.578125"
     inkscape:cx="256"
     inkscape:cy="256"
     inkscape:window-width="1920"
     inkscape:window-height="1016"
     inkscape:window-x="0"
     inkscape:window-y="28"
     inkscape:window-maximized="1"
     inkscape:current-layer="Layer_1" />
  <defs
     id="defs1953">
    <style
       id="style1951">.cls-1{fill:#1f0040;}.cls-2{fill:#f7eefe;}</style>
  </defs>
  <rect
     class="cls-1"
     height="419.17"
     rx="96.06"
     width="432"
     x="40"
     y="46.42"
     id="rect1955"
     style="fill:#000000" />
  <rect
     class="cls-1"
     height="379.17"
     rx="76.06"
     width="392"
     x="60"
     y="66.42"
     id="rect1957"
     style="fill:#000000" />
  <path
     class="cls-2"
     d="M160.11,291.18l-12.2,37.6a2.74,2.74,0,0,1-2.79,2H115.65c-1.78,0-2.28-1-2-2.54l50.81-146.58c1-2.79,2-5.84,2.54-15.49a1.7,1.7,0,0,1,1.52-1.78h40.64c1.28,0,1.78.25,2,1.52l57.66,162.58c.51,1.27.25,2.29-1.27,2.29h-33a2.57,2.57,0,0,1-2.8-1.78l-13-37.85Zm49.28-31.75c-5.08-16.77-15.24-47.51-20.07-65.54h-.25c-4.07,17-13.21,45-19.82,65.54Z"
     id="path1959"
     style="fill:#ffffff" />
  <path
     class="cls-2"
     d="M312.52,277c1.27,14.48,11.43,26.42,36.33,26.42,11.43,0,21.59-1.77,31.24-5.84.77-.51,1.53-.25,1.53,1.27v24.13c0,1.78-.51,2.54-1.78,3.05-10.16,4.83-21.34,7.37-38.87,7.37-47.75,0-64.52-32.77-64.52-64.27C276.45,234,298,202,337.93,202c38.35,0,53.6,29.72,53.6,54.87,0,7.87-.51,14.22-1.28,17a2.18,2.18,0,0,1-2,2c-3.3.51-13,1-26.16,1Zm33-24.64c8.12,0,11.68-.25,12.7-.5V250c0-6.1-4.83-20.07-21.59-20.07-16,0-22.87,11.94-24.39,22.35Z"
     id="path1961"
     style="fill:#ffffff" />
</svg>
